symbols/web/mobile_friendly/materialsymbolsoutlined/mobile_friendly_wght500fill1_48px.svg

<svg xmlns="http://www.w3.org/2000/svg" height="48" width="48"><path d="m30.25 32.05-8.6-8.65L24 21.05l6.25 6.25L42.1 15.45l2.4 2.35ZM11.15 46.3q-1.45 0-2.45-1-1-1-1-2.45V5.15q0-1.45 1-2.45 1-1 2.45-1h21.7q1.45 0 2.45 1 1 1 1 2.45v7.15h-3.45V9.65h-21.7v28.7h21.7V35.7h3.45v7.15q0 1.45-1 2.45-1 1-2.45 1Z"/></svg>

<svg xmlns="http://www.w3.org/2000/svg" height="48" width="48"><path d="M30.25 32.05 21.65 23.4 24 21.05 30.25 27.3 42.1 15.45 44.5 17.8ZM11.15 46.3Q9.7 46.3 8.7 45.3Q7.7 44.3 7.7 42.85V5.15Q7.7 3.7 8.7 2.7Q9.7 1.7 11.15 1.7H32.85Q34.3 1.7 35.3 2.7Q36.3 3.7 36.3 5.15V12.3H32.85V9.65H11.15V38.35H32.85V35.7H36.3V42.85Q36.3 44.3 35.3 45.3Q34.3 46.3 32.85 46.3Z"/></svg>
